assets/images/men.svg

<svg xmlns="http://www.w3.org/2000/svg" preserveAspectRatio="xMidYMid" width="32" height="36" viewBox="0 0 32 36"><defs><style>.cls-1{fill:#d3d3d3;fill-rule:evenodd}</style></defs><path d="M27.983 36.003H3.982a4 4 0 0 1-4-4V3.952a4 4 0 0 1 4-4h24.001a4 4 0 0 1 4 4v28.051a4 4 0 0 1-4 4zM8.891 18.75A2.101 2.101 0 0 0 11 16.656a2.102 2.102 0 0 0-2.109-2.094c-1.165 0-2.11.938-2.11 2.094 0 1.157.945 2.094 2.11 2.094zM23.028 2.951H3.048v.013h-.034l.012 19.981h.278L4.875 4.847l18.153-1.285v-.611z" class="cls-1"/></svg>

<svg xmlns="http://www.w3.org/2000/svg" xmlns:xlink="http://www.w3.org/1999/xlink" preserveAspectRatio="xMidYMid" width="32" height="36" viewBox="0 0 32 36">
  <defs>
    <style>
      .cls-1 {
        fill: #d3d3d3;
        fill-rule: evenodd;
      }
    </style>
  </defs>
  <path d="M27.983,36.003 L3.982,36.003 C1.773,36.003 -0.018,34.212 -0.018,32.003 L-0.018,3.952 C-0.018,1.743 1.773,-0.048 3.982,-0.048 L27.983,-0.048 C30.192,-0.048 31.983,1.743 31.983,3.952 L31.983,32.003 C31.983,34.212 30.192,36.003 27.983,36.003 ZM8.891,18.750 C10.056,18.750 11.000,17.813 11.000,16.656 C11.000,15.500 10.056,14.562 8.891,14.562 C7.726,14.562 6.781,15.500 6.781,16.656 C6.781,17.813 7.726,18.750 8.891,18.750 ZM23.028,2.951 L3.048,2.951 L3.048,2.964 L3.014,2.964 L3.026,22.945 L3.304,22.945 L4.875,4.847 L23.028,3.562 L23.028,2.951 Z" class="cls-1"/>
</svg>
